!!!COM: Corelli, Arcangelo
!!!OTL: 
!!!ONM: Opus 6, No. 11
!!!OMV: 6
!!!CDT: 1653/2/17/-1713/1/8/
!!!OCY: Italia
**kern	**kern	**kern
*clefG	*clefG	*clefG
*k[b-]	*k[b-]	*k[b-]
*d:	*d:	*d:
*M6/8	*M6/8	*M6/8
*tb24	*tb24	*tb24
2r	2r	2r
8r	8r	8r
8r	8r	8r
=1	=1	=1
2.r	2.r	2.r
=2	=2	=2
2r	2r	2r
8r	8r	8r
8B-	8dd	8ff
=3	=3	=3
4.B-	4.g	8gg
.	.	8ff
.	.	8gg
4.c	4.a	4e-
.	.	8gg
=4	=4	=4
4.d	4.b-	4ff
.	.	8b-
4.r	4.r	4.d
=5	=5	=5
2.r	2.r	2.r
=6	=6	=6
2r	2r	2r
8r	8r	8r
8g	8gg	8bb-
=7	=7	=7
4f	4cc	8aa
.	.	8gg
8d	8dd	8ff
4.c	4.b-	8cc
.	.	8ff
.	.	8ee
=8	=8	=8
4.c	4.a	4ff
.	.	8cc
4.r	4.r	4.f
=9	=9	=9
2.r	2.r	2.r
=10	=10	=10
2.r	2.r	2.r
=11	=11	=11
2.r	2.r	2.r
=12	=12	=12
2r	4.r	2r
.	[4.dd	.
8r	.	8r
8b-	.	8ff
=13	=13	=13
4.b-	4dd]	4gg
.	8g	8b-
4r	4cc	4e-
8g	8ee-	8gg
=14	=14	=14
4.cc	4.f	4aa
.	.	8f
4r	4r	4bb-
8b-	8gg	8ee-
=15	=15	=15
4.b-	8ff	8dd
.	8ee-	8cc
.	8dd	8b-
8a	4cc	8f
8b-	.	8b-
8cc	8f	8a
=16	=16	=16
4.b-	4.d	4b-
.	.	8f
4.r	4.r	4.B-
=17	=17	=17
2.r	2.r	2.r
=18	=18	=18
2.r	2.r	2.r
=19	=19	=19
2.r	2.r	2.r
=20	=20	=20
2r	4.r	2r
.	[4.dd	.
8r	.	8r
8b-	.	8ff
=21	=21	=21
4.b-	4dd]	4gg
.	8g	8b-
4r	4cc	4e-
8g	8ee-	8gg
=22	=22	=22
4.cc	4.f	4aa
.	.	8f
4r	4r	4bb-
8b-	8gg	8ee-
=23	=23	=23
4.b-	8ff	8dd
.	8ee-	8cc
.	8dd	8b-
8a	4cc	8f
8b-	.	8b-
8cc	8f	8a
=24	=24	=24
4.b-	4.d	4.b-
4.r	4.r	4.r
=25	=25	=25
2.r	2.r	2.r
=26	=26	=26
2r	2r	2r
8r	8r	8r
8d	8ee-	8cc
=27	=27	=27
4d	8dd	8b-
.	8cc	8a
8e-	8b-	8g
4A	4.a	8d
.	.	8g
8d	.	8f#
=28	=28	=28
4.d	4.g	4.g
4.r	4.r	4.r
=29	=29	=29
2.r	2.r	2.r
=30	=30	=30
2r	2r	2r
8r	8r	8r
8g	8aa-	8ff
=31	=31	=31
4g	8gg	8ee-
.	8ff	8dd
8a-	8ee-	8cc
4d	4.dd	8g
.	.	8cc
8g	.	8b
=32	=32	=32
4.g	4.cc	4.cc
4.r	4.r	4.r
=33	=33	=33
2.r	2.r	2.r
=34	=34	=34
2r	2r	2r
8r	8r	8r
8B	8g	8gg
=35	=35	=35
4.c	4.gg	4.ee-
4.d	4.gg	4.dd
=36	=36	=36
4.e	4.gg	4.cc#
4r	4r	4r
8d	8ff	8aa
=37	=37	=37
4b-	8ee	8gg
.	8ff	8aa
8a	8dd	8ff
4.a	8a	4.ee
.	8dd	.
.	8cc#	.
=38	=38	=38
4.a	4.dd	2dd
4r	4.a	.
.	.	8ee-
8d	.	8cc
=39	=39	=39
4.d	4.d	8b-
.	.	8cc
.	.	8a
4r	4r	8g
.	.	8a
8b-	8g	8b-
=40	=40	=40
4.a	4e	4c#
.	8A	8a
4r	4.d	4f
8A	.	8e
=41	=41	=41
4A	4r	8f
.	.	8a
8B-	8g	8dd
4.A	8f	4A
.	8g	.
.	8e	8cc#
=42	=42	=42
4.A	4.d	4.d
4.r	4.r	4.r
=43	=43	=43
2.r	2.r	2.r
=44	=44	=44
2r	2r	2r
8r	8r	8r
8B-	8dd	8ff
=45	=45	=45
4.B-	4.g	8gg
.	.	8ff
.	.	8gg
4.c	4.a	4e-
.	.	8gg
=46	=46	=46
4.d	4.b-	4ff
.	.	8b-
4.r	4.r	4.d
=47	=47	=47
2.r	2.r	2.r
=48	=48	=48
2r	2r	2r
8r	8r	8r
8g	8gg	8bb-
=49	=49	=49
4f	4cc	8aa
.	.	8gg
8d	8dd	8ff
4.c	4.b-	8cc
.	.	8ff
.	.	8ee
=50	=50	=50
*	*	*
!!!RWG: This file only contains pitch and duration data.
!!!RWG: Transposing instruments are not transposed.
!!!RWG: Durations of rests and tied notes may be interpreted.
4.c	4.a	4ff
.	.	8cc
4.r	4.r	4.f
=51	=51	=51
2.r	2.r	2.r
=52	=52	=52
2.r	2.r	2.r
=53	=53	=53
2.r	2.r	2.r
=54	=54	=54
2r	4.r	2r
.	[4.dd	.
8r	.	8r
8b-	.	8ff
=55	=55	=55
4.b-	4dd]	4gg
.	8g	8b-
4r	4cc	4e-
8g	8ee-	8gg
=56	=56	=56
4.cc	4.f	4aa
.	.	8f
4r	4r	4bb-
8b-	8gg	8ee-
=57	=57	=57
4.b-	8ff	8dd
.	8ee-	8cc
.	8dd	8b-
8a	4cc	8f
8b-	.	8b-
8cc	8f	8a
=58	=58	=58
4.b-	4.d	4b-
.	.	8f
4.r	4.r	4.B-
=59	=59	=59
2.r	2.r	2.r
=60	=60	=60
2.r	2.r	2.r
=61	=61	=61
2.r	2.r	2.r
=62	=62	=62
2r	4.r	2r
.	[4.dd	.
8r	.	8r
8b-	.	8ff
=63	=63	=63
4.b-	4dd]	4gg
.	8g	8b-
4r	4cc	4e-
8g	8ee-	8gg
=64	=64	=64
4.cc	4.f	4aa
.	.	8f
4r	4r	4bb-
8b-	8gg	8ee-
=65	=65	=65
4.b-	8ff	8dd
.	8ee-	8cc
.	8dd	8b-
8a	4cc	8f
8b-	.	8b-
8cc	8f	8a
=66	=66	=66
4.b-	4.d	4.b-
4r	4r	4r
8B-	8e-	8g
=67	=67	=67
4.c	4.f	4.A
4r	4r	4r
8b-	8dd	8f
=68	=68	=68
4.g	8cc	8e-
.	8dd	8f
.	8b-	8d
4.f	4f	4c
.	8a	8f
=69	=69	=69
[2f	[2b-	[2d
8f]	8b-]	8d]
8r	8r	8r
==	==	==
*-	*-	*-
!!!RWG: This file only contains pitch and duration data.
!!!RWG: Transposing instruments are not transposed.
!!!RWG: Durations of rests and tied notes may be interpreted.
!!!RWG: Key is interpreted using the Humdrum key tool.
!!!SCA: 
!!!YOR: Chrysander Edition
!!!AGN: concerto grosso
!!!AFT: stage1
!!!ENC: F. Bennion
!!!END: 1997/04/15
!!!AST: baroque
!!!YEC: Copyright 1994, Center for Computer Assisted Research in the Humanities
!!!YEM: Rights to all derivative electronic formats reserved.
!!!YEM: Refer to licensing agreement for further details.
!!!YEN: United States of America
!!!EED: W.B. Hewlett
!!!KEY: 84148409
!!!EMD: Converted from MuseData to Humdrum Aug 2, 1999, by Bret Aarden using muse2kern.
!!!VTS: 3441246016
